images/16758247.svg

<?xml version="1.0" encoding="UTF-8"?>
<svg xmlns="http://www.w3.org/2000/svg" xmlns:xlink="http://www.w3.org/1999/xlink" width="300pt" height="300pt" viewBox="0 0 300 300" version="1.1">
<defs>
<g>
<symbol overflow="visible" id="glyph0-0">
<path style="stroke:none;" d="M 0.453125 1.59375 L 0.453125 -6.34375 L 4.953125 -6.34375 L 4.953125 1.59375 Z M 0.953125 1.09375 L 4.453125 1.09375 L 4.453125 -5.84375 L 0.953125 -5.84375 Z M 0.953125 1.09375 "/>
</symbol>
<symbol overflow="visible" id="glyph0-1">
<path style="stroke:none;" d="M 3.546875 -5.953125 C 2.898438 -5.953125 2.382812 -5.710938 2 -5.234375 C 1.625 -4.753906 1.4375 -4.101562 1.4375 -3.28125 C 1.4375 -2.445312 1.625 -1.789062 2 -1.3125 C 2.382812 -0.832031 2.898438 -0.59375 3.546875 -0.59375 C 4.191406 -0.59375 4.703125 -0.832031 5.078125 -1.3125 C 5.453125 -1.789062 5.640625 -2.445312 5.640625 -3.28125 C 5.640625 -4.101562 5.453125 -4.753906 5.078125 -5.234375 C 4.703125 -5.710938 4.191406 -5.953125 3.546875 -5.953125 Z M 3.546875 -6.6875 C 4.460938 -6.6875 5.195312 -6.375 5.75 -5.75 C 6.300781 -5.132812 6.578125 -4.3125 6.578125 -3.28125 C 6.578125 -2.238281 6.300781 -1.410156 5.75 -0.796875 C 5.195312 -0.179688 4.460938 0.125 3.546875 0.125 C 2.617188 0.125 1.878906 -0.179688 1.328125 -0.796875 C 0.773438 -1.410156 0.5 -2.238281 0.5 -3.28125 C 0.5 -4.3125 0.773438 -5.132812 1.328125 -5.75 C 1.878906 -6.375 2.617188 -6.6875 3.546875 -6.6875 Z M 3.546875 -6.6875 "/>
</symbol>
<symbol overflow="visible" id="glyph0-2">
<path style="stroke:none;" d="M 0.890625 -6.5625 L 2.078125 -6.5625 L 4.984375 -1.078125 L 4.984375 -6.5625 L 5.84375 -6.5625 L 5.84375 0 L 4.65625 0 L 1.75 -5.484375 L 1.75 0 L 0.890625 0 Z M 0.890625 -6.5625 "/>
</symbol>
<symbol overflow="visible" id="glyph0-3">
<path style="stroke:none;" d="M 0.890625 -6.5625 L 1.765625 -6.5625 L 1.765625 -3.875 L 5 -3.875 L 5 -6.5625 L 5.890625 -6.5625 L 5.890625 0 L 5 0 L 5 -3.125 L 1.765625 -3.125 L 1.765625 0 L 0.890625 0 Z M 0.890625 -6.5625 "/>
</symbol>
</g>
</defs>
<g id="surface53373">
<rect x="0" y="0" width="300" height="300" style="fill:rgb(100%,100%,100%);fill-opacity:1;stroke:none;"/>
<path style=" stroke:none;fill-rule:nonzero;fill:rgb(0%,0%,0%);fill-opacity:1;" d="M 72.246094 169.761719 L 46.441406 170.988281 L 48.417969 179.746094 Z M 72.246094 169.761719 "/>
<path style="fill:none;stroke-width:1.2;stroke-linecap:butt;stroke-linejoin:miter;stroke:rgb(0%,0%,0%);stroke-opacity:1;stroke-miterlimit:10;" d="M 72.246094 169.761719 L 81.863281 193.316406 "/>
<path style="fill:none;stroke-width:1.2;stroke-linecap:butt;stroke-linejoin:miter;stroke:rgb(0%,0%,0%);stroke-opacity:1;stroke-miterlimit:10;" d="M 70.804688 144.359375 L 72.246094 169.761719 "/>
<path style="fill:none;stroke-width:1.2;stroke-linecap:butt;stroke-linejoin:miter;stroke:rgb(0%,0%,0%);stroke-opacity:1;stroke-miterlimit:10;" d="M 81.863281 193.316406 L 90.230469 202.898438 "/>
<path style="fill:none;stroke-width:1.2;stroke-linecap:butt;stroke-linejoin:miter;stroke:rgb(100%,0%,0%);stroke-opacity:1;stroke-miterlimit:10;" d="M 90.230469 202.898438 L 98.601562 212.476562 "/>
<path style="fill:none;stroke-width:1.2;stroke-linecap:butt;stroke-linejoin:miter;stroke:rgb(100%,0%,0%);stroke-opacity:1;stroke-miterlimit:10;" d="M 98.601562 212.476562 L 109.632812 218.820312 "/>
<path style="fill:none;stroke-width:1.2;stroke-linecap:butt;stroke-linejoin:miter;stroke:rgb(0%,0%,0%);stroke-opacity:1;stroke-miterlimit:10;" d="M 109.632812 218.820312 L 120.660156 225.160156 "/>
<path style=" stroke:none;fill-rule:nonzero;fill:rgb(100%,100%,100%);fill-opacity:1;" d="M 94.601562 206.976562 L 102.601562 206.976562 L 102.601562 217.976562 L 94.601562 217.976562 Z M 94.601562 206.976562 "/>
<g style="fill:rgb(100%,0%,0%);fill-opacity:1;">
  <use xlink:href="#glyph0-1" x="94.601562" y="215.639648"/>
</g>
<path style="fill:none;stroke-width:1.2;stroke-linecap:butt;stroke-linejoin:miter;stroke:rgb(0%,0%,0%);stroke-opacity:1;stroke-miterlimit:10;" d="M 117.855469 224.117188 L 113.414062 236.039062 "/>
<path style="fill:none;stroke-width:1.2;stroke-linecap:butt;stroke-linejoin:miter;stroke:rgb(100%,0%,0%);stroke-opacity:1;stroke-miterlimit:10;" d="M 113.414062 236.039062 L 108.972656 247.957031 "/>
<path style="fill:none;stroke-width:1.2;stroke-linecap:butt;stroke-linejoin:miter;stroke:rgb(0%,0%,0%);stroke-opacity:1;stroke-miterlimit:10;" d="M 123.464844 226.207031 L 119.023438 238.128906 "/>
<path style="fill:none;stroke-width:1.2;stroke-linecap:butt;stroke-linejoin:miter;stroke:rgb(100%,0%,0%);stroke-opacity:1;stroke-miterlimit:10;" d="M 119.023438 238.128906 L 114.582031 250.046875 "/>
<path style="fill:none;stroke-width:1.2;stroke-linecap:butt;stroke-linejoin:miter;stroke:rgb(0%,0%,0%);stroke-opacity:1;stroke-miterlimit:10;" d="M 120.660156 225.160156 L 145.636719 229.996094 "/>
<path style=" stroke:none;fill-rule:nonzero;fill:rgb(100%,100%,100%);fill-opacity:1;" d="M 103.777344 243.503906 L 111.777344 243.503906 L 111.777344 254.503906 L 103.777344 254.503906 Z M 103.777344 243.503906 "/>
<g style="fill:rgb(100%,0%,0%);fill-opacity:1;">
  <use xlink:href="#glyph0-1" x="103.777344" y="252.166992"/>
</g>
<path style="fill:none;stroke-width:1.2;stroke-linecap:butt;stroke-linejoin:miter;stroke:rgb(0%,0%,0%);stroke-opacity:1;stroke-miterlimit:10;" d="M 145.636719 229.996094 L 170.835938 226.460938 "/>
<path style="fill:none;stroke-width:1.2;stroke-linecap:butt;stroke-linejoin:miter;stroke:rgb(0%,0%,0%);stroke-opacity:1;stroke-miterlimit:10;" d="M 170.835938 226.460938 L 193.515625 214.933594 "/>
<path style="fill:none;stroke-width:1.2;stroke-linecap:butt;stroke-linejoin:miter;stroke:rgb(0%,0%,0%);stroke-opacity:1;stroke-miterlimit:10;" d="M 170.390625 219.96875 L 188.535156 210.75 "/>
<path style="fill:none;stroke-width:1.2;stroke-linecap:butt;stroke-linejoin:miter;stroke:rgb(0%,0%,0%);stroke-opacity:1;stroke-miterlimit:10;" d="M 193.515625 214.933594 L 211.226562 196.667969 "/>
<path style="fill:none;stroke-width:1.2;stroke-linecap:butt;stroke-linejoin:miter;stroke:rgb(0%,0%,0%);stroke-opacity:1;stroke-miterlimit:10;" d="M 211.226562 196.667969 L 222.046875 173.636719 "/>
<path style="fill:none;stroke-width:1;stroke-linecap:butt;stroke-linejoin:miter;stroke:rgb(0%,0%,0%);stroke-opacity:1;stroke-miterlimit:10;" d="M 211.226562 196.667969 L 211.226562 196.667969 M 213.363281 198.773438 L 213.953125 197.917969 M 215.496094 200.882812 L 216.683594 199.167969 M 217.632812 202.992188 L 219.410156 200.417969 M 219.765625 205.097656 L 222.136719 201.667969 M 221.898438 207.207031 L 224.863281 202.917969 M 224.035156 209.316406 L 227.589844 204.167969 M 226.167969 211.425781 L 230.316406 205.417969 M 228.300781 213.53125 L 233.042969 206.667969 M 229.609375 214.824219 L 234.714844 207.433594 "/>
<path style="fill:none;stroke-width:1.2;stroke-linecap:butt;stroke-linejoin:miter;stroke:rgb(0%,0%,0%);stroke-opacity:1;stroke-miterlimit:10;" d="M 222.046875 173.636719 L 224.804688 148.34375 "/>
<path style=" stroke:none;fill-rule:nonzero;fill:rgb(0%,0%,0%);fill-opacity:1;" d="M 222.046875 173.636719 L 245.328125 184.84375 L 247.757812 176.199219 Z M 222.046875 173.636719 "/>
<path style="fill:none;stroke-width:1.2;stroke-linecap:butt;stroke-linejoin:miter;stroke:rgb(0%,0%,0%);stroke-opacity:1;stroke-miterlimit:10;" d="M 224.804688 148.34375 L 222 135.9375 "/>
<path style="fill:none;stroke-width:1.2;stroke-linecap:butt;stroke-linejoin:miter;stroke:rgb(100%,0%,0%);stroke-opacity:1;stroke-miterlimit:10;" d="M 222 135.9375 L 219.199219 123.527344 "/>
<path style="fill:none;stroke-width:1.2;stroke-linecap:butt;stroke-linejoin:miter;stroke:rgb(100%,0%,0%);stroke-opacity:1;stroke-miterlimit:10;" d="M 219.199219 123.527344 L 212.519531 112.699219 "/>
<path style="fill:none;stroke-width:1.2;stroke-linecap:butt;stroke-linejoin:miter;stroke:rgb(0%,0%,0%);stroke-opacity:1;stroke-miterlimit:10;" d="M 212.519531 112.699219 L 205.839844 101.875 "/>
<path style=" stroke:none;fill-rule:nonzero;fill:rgb(100%,100%,100%);fill-opacity:1;" d="M 215.199219 118.027344 L 223.199219 118.027344 L 223.199219 129.027344 L 215.199219 129.027344 Z M 215.199219 118.027344 "/>
<g style="fill:rgb(100%,0%,0%);fill-opacity:1;">
  <use xlink:href="#glyph0-1" x="215.199219" y="126.69043"/>
</g>
<path style="fill:none;stroke-width:1.2;stroke-linecap:butt;stroke-linejoin:miter;stroke:rgb(0%,0%,0%);stroke-opacity:1;stroke-miterlimit:10;" d="M 207.808594 104.128906 L 217.386719 95.757812 "/>
<path style="fill:none;stroke-width:1.2;stroke-linecap:butt;stroke-linejoin:miter;stroke:rgb(100%,0%,0%);stroke-opacity:1;stroke-miterlimit:10;" d="M 217.386719 95.757812 L 226.964844 87.386719 "/>
<path style="fill:none;stroke-width:1.2;stroke-linecap:butt;stroke-linejoin:miter;stroke:rgb(0%,0%,0%);stroke-opacity:1;stroke-miterlimit:10;" d="M 203.867188 99.621094 L 213.449219 91.25 "/>
<path style="fill:none;stroke-width:1.2;stroke-linecap:butt;stroke-linejoin:miter;stroke:rgb(100%,0%,0%);stroke-opacity:1;stroke-miterlimit:10;" d="M 213.449219 91.25 L 223.027344 82.878906 "/>
<path style="fill:none;stroke-width:1.2;stroke-linecap:butt;stroke-linejoin:miter;stroke:rgb(0%,0%,0%);stroke-opacity:1;stroke-miterlimit:10;" d="M 205.839844 101.875 L 186.171875 85.730469 "/>
<path style=" stroke:none;fill-rule:nonzero;fill:rgb(100%,100%,100%);fill-opacity:1;" d="M 220.996094 79.632812 L 228.996094 79.632812 L 228.996094 90.632812 L 220.996094 90.632812 Z M 220.996094 79.632812 "/>
<g style="fill:rgb(100%,0%,0%);fill-opacity:1;">
  <use xlink:href="#glyph0-1" x="220.996094" y="88.295898"/>
</g>
<path style="fill:none;stroke-width:1.2;stroke-linecap:butt;stroke-linejoin:miter;stroke:rgb(0%,0%,0%);stroke-opacity:1;stroke-miterlimit:10;" d="M 186.171875 85.730469 L 174.25 81.292969 "/>
<path style="fill:none;stroke-width:1.2;stroke-linecap:butt;stroke-linejoin:miter;stroke:rgb(0%,0%,100%);stroke-opacity:1;stroke-miterlimit:10;" d="M 174.25 81.292969 L 162.328125 76.851562 "/>
<path style=" stroke:none;fill-rule:nonzero;fill:rgb(0%,0%,0%);fill-opacity:1;" d="M 186.171875 85.730469 L 202.746094 65.914062 L 194.964844 61.4375 Z M 186.171875 85.730469 "/>
<path style="fill:none;stroke-width:1.2;stroke-linecap:butt;stroke-linejoin:miter;stroke:rgb(0%,0%,100%);stroke-opacity:1;stroke-miterlimit:10;" d="M 162.328125 76.851562 L 149.609375 76.519531 "/>
<path style="fill:none;stroke-width:1.2;stroke-linecap:butt;stroke-linejoin:miter;stroke:rgb(0%,0%,0%);stroke-opacity:1;stroke-miterlimit:10;" d="M 149.609375 76.519531 L 136.894531 76.191406 "/>
<path style=" stroke:none;fill-rule:nonzero;fill:rgb(100%,100%,100%);fill-opacity:1;" d="M 155.328125 71.351562 L 169.328125 71.351562 L 169.328125 82.351562 L 155.328125 82.351562 Z M 155.328125 71.351562 "/>
<g style="fill:rgb(0%,0%,100%);fill-opacity:1;">
  <use xlink:href="#glyph0-2" x="155.328125" y="80.014648"/>
  <use xlink:href="#glyph0-3" x="162.305664" y="80.014648"/>
</g>
<path style="fill:none;stroke-width:1.2;stroke-linecap:butt;stroke-linejoin:miter;stroke:rgb(0%,0%,0%);stroke-opacity:1;stroke-miterlimit:10;" d="M 139.859375 75.777344 L 138.089844 63.179688 "/>
<path style="fill:none;stroke-width:1.2;stroke-linecap:butt;stroke-linejoin:miter;stroke:rgb(100%,0%,0%);stroke-opacity:1;stroke-miterlimit:10;" d="M 138.089844 63.179688 L 136.320312 50.578125 "/>
<path style="fill:none;stroke-width:1.2;stroke-linecap:butt;stroke-linejoin:miter;stroke:rgb(0%,0%,0%);stroke-opacity:1;stroke-miterlimit:10;" d="M 133.929688 76.609375 L 132.160156 64.011719 "/>
<path style="fill:none;stroke-width:1.2;stroke-linecap:butt;stroke-linejoin:miter;stroke:rgb(100%,0%,0%);stroke-opacity:1;stroke-miterlimit:10;" d="M 132.160156 64.011719 L 130.390625 51.414062 "/>
<path style="fill:none;stroke-width:1.2;stroke-linecap:butt;stroke-linejoin:miter;stroke:rgb(0%,0%,0%);stroke-opacity:1;stroke-miterlimit:10;" d="M 136.894531 76.191406 L 112.625 83.828125 "/>
<path style=" stroke:none;fill-rule:nonzero;fill:rgb(100%,100%,100%);fill-opacity:1;" d="M 129.355469 45.496094 L 137.355469 45.496094 L 137.355469 56.496094 L 129.355469 56.496094 Z M 129.355469 45.496094 "/>
<g style="fill:rgb(100%,0%,0%);fill-opacity:1;">
  <use xlink:href="#glyph0-1" x="129.355469" y="54.15918"/>
</g>
<path style="fill:none;stroke-width:1.2;stroke-linecap:butt;stroke-linejoin:miter;stroke:rgb(0%,0%,0%);stroke-opacity:1;stroke-miterlimit:10;" d="M 112.625 83.828125 L 92.148438 98.929688 "/>
<path style="fill:none;stroke-width:1.2;stroke-linecap:butt;stroke-linejoin:miter;stroke:rgb(0%,0%,0%);stroke-opacity:1;stroke-miterlimit:10;" d="M 92.148438 98.929688 L 77.683594 119.863281 "/>
<path style="fill:none;stroke-width:1.2;stroke-linecap:butt;stroke-linejoin:miter;stroke:rgb(0%,0%,0%);stroke-opacity:1;stroke-miterlimit:10;" d="M 95.625 104.425781 L 84.058594 121.171875 "/>
<path style="fill:none;stroke-width:1.2;stroke-linecap:butt;stroke-linejoin:miter;stroke:rgb(0%,0%,0%);stroke-opacity:1;stroke-miterlimit:10;" d="M 77.683594 119.863281 L 70.804688 144.359375 "/>
<path style="fill:none;stroke-width:1;stroke-linecap:butt;stroke-linejoin:miter;stroke:rgb(0%,0%,0%);stroke-opacity:1;stroke-miterlimit:10;" d="M 70.804688 144.359375 L 70.804688 144.359375 M 67.921875 143.519531 L 67.808594 144.558594 M 65.042969 142.683594 L 64.816406 144.753906 M 62.160156 141.84375 L 61.824219 144.953125 M 59.28125 141.003906 L 58.828125 145.152344 M 56.402344 140.167969 L 55.835938 145.351562 M 53.519531 139.328125 L 52.84375 145.546875 M 50.640625 138.492188 L 49.847656 145.746094 M 47.757812 137.652344 L 46.855469 145.945312 M 45.996094 137.140625 L 45.023438 146.066406 "/>
<path style="fill:none;stroke-width:1.2;stroke-linecap:butt;stroke-linejoin:miter;stroke:rgb(100%,0%,0%);stroke-opacity:1;stroke-miterlimit:10;" d="M 45.507812 141.601562 L 40.378906 129.960938 "/>
<path style="fill:none;stroke-width:1.2;stroke-linecap:butt;stroke-linejoin:miter;stroke:rgb(0%,0%,0%);stroke-opacity:1;stroke-miterlimit:10;" d="M 40.378906 129.960938 L 35.25 118.320312 "/>
<path style=" stroke:none;fill-rule:nonzero;fill:rgb(100%,100%,100%);fill-opacity:1;" d="M 41.507812 136.101562 L 49.507812 136.101562 L 49.507812 147.101562 L 41.507812 147.101562 Z M 41.507812 136.101562 "/>
<g style="fill:rgb(100%,0%,0%);fill-opacity:1;">
  <use xlink:href="#glyph0-1" x="41.507812" y="144.764648"/>
</g>
<path style="fill:none;stroke-width:1.2;stroke-linecap:butt;stroke-linejoin:miter;stroke:rgb(100%,0%,0%);stroke-opacity:1;stroke-miterlimit:10;" d="M 246.542969 180.519531 L 255.644531 171.632812 "/>
<path style="fill:none;stroke-width:1.2;stroke-linecap:butt;stroke-linejoin:miter;stroke:rgb(0%,0%,0%);stroke-opacity:1;stroke-miterlimit:10;" d="M 255.644531 171.632812 L 264.75 162.75 "/>
<path style=" stroke:none;fill-rule:nonzero;fill:rgb(100%,100%,100%);fill-opacity:1;" d="M 242.542969 175.019531 L 250.542969 175.019531 L 250.542969 186.019531 L 242.542969 186.019531 Z M 242.542969 175.019531 "/>
<g style="fill:rgb(100%,0%,0%);fill-opacity:1;">
  <use xlink:href="#glyph0-1" x="242.542969" y="183.682617"/>
</g>
</g>
</svg>

<svg xmlns="http://www.w3.org/2000/svg" xmlns:xlink="http://www.w3.org/1999/xlink" width="300pt" height="300pt" viewBox="0 0 300 300"><defs><symbol overflow="visible"><path d="M.453 1.594v-7.938h4.5v7.938zm.5-.5h3.5v-6.938h-3.5zm0 0"/></symbol><symbol overflow="visible" id="a"><path d="M3.547-5.953c-.65 0-1.164.242-1.547.72-.375.48-.563 1.13-.563 1.952 0 .835.188 1.49.563 1.967.383.48.898.72 1.547.72.644 0 1.156-.24 1.53-.72.376-.476.564-1.132.564-1.968 0-.822-.187-1.474-.562-1.954-.375-.477-.887-.72-1.53-.72zm0-.734c.914 0 1.648.312 2.203.937.55.617.828 1.438.828 2.47 0 1.042-.277 1.87-.828 2.483-.555.617-1.29.922-2.203.922-.93 0-1.668-.305-2.22-.922C.774-1.41.5-2.237.5-3.28c0-1.033.273-1.853.828-2.47.55-.625 1.29-.938 2.22-.938zm0 0"/></symbol><symbol overflow="visible" id="b"><path d="M.89-6.563H2.08l2.906 5.485v-5.484h.86V0H4.656L1.75-5.484V0H.89zm0 0"/></symbol><symbol overflow="visible" id="c"><path d="M.89-6.563h.876v2.688H5v-2.688h.89V0H5v-3.125H1.766V0H.89zm0 0"/></symbol></defs><g><path fill="#fff" d="M0 0h300v300H0z"/><path d="M72.246 169.762l-25.805 1.226 1.978 8.758zm0 0"/><path d="M72.246 169.762l9.617 23.554M70.805 144.36l1.44 25.402M81.863 193.316l8.367 9.582" stroke-width="1.2" stroke="#000" stroke-miterlimit="10" fill="none"/><path d="M90.23 202.898l8.372 9.58M98.602 212.477l11.03 6.343" stroke-width="1.2" stroke="#f00" stroke-miterlimit="10" fill="none"/><path d="M109.633 218.82l11.027 6.34" stroke-width="1.2" stroke="#000" stroke-miterlimit="10" fill="none"/><path d="M94.602 206.977h8v11h-8zm0 0" fill="#fff"/><use xlink:href="#a" x="94.602" y="215.64" fill="#f00"/><path d="M117.855 224.117l-4.44 11.922" stroke-width="1.2" stroke="#000" stroke-miterlimit="10" fill="none"/><path d="M113.414 236.04l-4.44 11.917" stroke-width="1.2" stroke="#f00" stroke-miterlimit="10" fill="none"/><path d="M123.465 226.207l-4.442 11.922" stroke-width="1.2" stroke="#000" stroke-miterlimit="10" fill="none"/><path d="M119.023 238.13l-4.44 11.917" stroke-width="1.2" stroke="#f00" stroke-miterlimit="10" fill="none"/><path d="M120.66 225.16l24.977 4.836" stroke-width="1.2" stroke="#000" stroke-miterlimit="10" fill="none"/><path d="M103.777 243.504h8v11h-8zm0 0" fill="#fff"/><use xlink:href="#a" x="103.777" y="252.167" fill="#f00"/><path d="M145.637 229.996l25.2-3.535M170.836 226.46l22.68-11.526M170.39 219.97l18.145-9.22M193.516 214.934l17.71-18.266M211.227 196.668l10.82-23.03" stroke-width="1.2" stroke="#000" stroke-miterlimit="10" fill="none"/><path d="M211.227 196.668m2.136 2.105l.59-.855m1.543 2.965l1.188-1.715m.95 3.824l1.776-2.574m.356 4.68l2.37-3.43m-.238 5.54l2.965-4.29m-.828 6.398l3.555-5.148m-1.422 7.258l4.148-6.008m-2.015 8.113l4.743-6.862m-3.434 8.156l5.105-7.39" stroke="#000" stroke-miterlimit="10" fill="none"/><path d="M222.047 173.637l2.758-25.293" stroke-width="1.2" stroke="#000" stroke-miterlimit="10" fill="none"/><path d="M222.047 173.637l23.28 11.207 2.43-8.645zm0 0"/><path d="M224.805 148.344L222 135.938" stroke-width="1.2" stroke="#000" stroke-miterlimit="10" fill="none"/><path d="M222 135.938l-2.8-12.41M219.2 123.527l-6.68-10.828" stroke-width="1.2" stroke="#f00" stroke-miterlimit="10" fill="none"/><path d="M212.52 112.7l-6.68-10.825" stroke-width="1.2" stroke="#000" stroke-miterlimit="10" fill="none"/><path d="M215.2 118.027h8v11h-8zm0 0" fill="#fff"/><use xlink:href="#a" x="215.199" y="126.69" fill="#f00"/><path d="M207.81 104.13l9.577-8.372" stroke-width="1.2" stroke="#000" stroke-miterlimit="10" fill="none"/><path d="M217.387 95.758l9.578-8.37" stroke-width="1.2" stroke="#f00" stroke-miterlimit="10" fill="none"/><path d="M203.867 99.62l9.582-8.37" stroke-width="1.2" stroke="#000" stroke-miterlimit="10" fill="none"/><path d="M213.45 91.25l9.577-8.37" stroke-width="1.2" stroke="#f00" stroke-miterlimit="10" fill="none"/><path d="M205.84 101.875L186.172 85.73" stroke-width="1.2" stroke="#000" stroke-miterlimit="10" fill="none"/><path d="M220.996 79.633h8v11h-8zm0 0" fill="#fff"/><use xlink:href="#a" x="220.996" y="88.296" fill="#f00"/><path d="M186.172 85.73l-11.922-4.437" stroke-width="1.2" stroke="#000" stroke-miterlimit="10" fill="none"/><path d="M174.25 81.293l-11.922-4.44" stroke-width="1.2" stroke="#00f" stroke-miterlimit="10" fill="none"/><path d="M186.172 85.73l16.574-19.816-7.78-4.477zm0 0"/><path d="M162.328 76.852l-12.72-.332" stroke-width="1.2" stroke="#00f" stroke-miterlimit="10" fill="none"/><path d="M149.61 76.52l-12.715-.33" stroke-width="1.2" stroke="#000" stroke-miterlimit="10" fill="none"/><path d="M155.328 71.352h14v11h-14zm0 0" fill="#fff"/><g fill="#00f"><use xlink:href="#b" x="155.328" y="80.015"/><use xlink:href="#c" x="162.306" y="80.015"/></g><path d="M139.86 75.777l-1.77-12.597" stroke-width="1.2" stroke="#000" stroke-miterlimit="10" fill="none"/><path d="M138.09 63.18l-1.77-12.602" stroke-width="1.2" stroke="#f00" stroke-miterlimit="10" fill="none"/><path d="M133.93 76.61l-1.77-12.598" stroke-width="1.2" stroke="#000" stroke-miterlimit="10" fill="none"/><path d="M132.16 64.012l-1.77-12.598" stroke-width="1.2" stroke="#f00" stroke-miterlimit="10" fill="none"/><path d="M136.895 76.19l-24.27 7.638" stroke-width="1.2" stroke="#000" stroke-miterlimit="10" fill="none"/><path d="M129.355 45.496h8v11h-8zm0 0" fill="#fff"/><use xlink:href="#a" x="129.355" y="54.159" fill="#f00"/><path d="M112.625 83.828L92.148 98.93M92.148 98.93l-14.464 20.933M95.625 104.426L84.06 121.172M77.684 119.863l-6.88 24.496" stroke-width="1.2" stroke="#000" stroke-miterlimit="10" fill="none"/><path d="M70.805 144.36m-2.883-.84l-.113 1.04m-2.767-1.876l-.227 2.07m-2.656-2.91l-.336 3.11m-2.543-3.95l-.452 4.148m-2.426-4.984l-.566 5.184m-2.316-6.024l-.676 6.22m-2.203-7.056l-.792 7.254m-2.09-8.094l-.903 8.293m-.86-8.804l-.972 8.926" stroke="#000" stroke-miterlimit="10" fill="none"/><path d="M45.508 141.602l-5.13-11.64" stroke-width="1.2" stroke="#f00" stroke-miterlimit="10" fill="none"/><path d="M40.38 129.96l-5.13-11.64" stroke-width="1.2" stroke="#000" stroke-miterlimit="10" fill="none"/><path d="M41.508 136.102h8v11h-8zm0 0" fill="#fff"/><use xlink:href="#a" x="41.508" y="144.765" fill="#f00"/><path d="M246.543 180.52l9.102-8.887" stroke-width="1.2" stroke="#f00" stroke-miterlimit="10" fill="none"/><path d="M255.645 171.633l9.105-8.883" stroke-width="1.2" stroke="#000" stroke-miterlimit="10" fill="none"/><path d="M242.543 175.02h8v11h-8zm0 0" fill="#fff"/><use xlink:href="#a" x="242.543" y="183.683" fill="#f00"/></g></svg>
